icons/label-chevron-right.svg

<svg xmlns="http://www.w3.org/2000/svg" width="24" height="24" viewBox="0 0 24 24">
  <path d="M15.0924635,4 C15.6691887,4 16.2178408,4.24896086 16.5976169,4.68299078 L21.8476169,10.6829908 C22.5074124,11.4370428 22.5074124,12.5629572 21.8476169,13.3170092 L16.5976169,19.3170092 C16.2178408,19.7510391 15.6691887,20 15.0924635,20 L4,20 C2.8954305,20 2,19.1045695 2,18 L2,6 C2,4.8954305 2.8954305,4 4,4 L15.0924635,4 Z M8.61289944,8.20970461 C8.22060824,7.90467972 7.65337718,7.93240926 7.29289322,8.29289322 L7.29289322,8.29289322 L7.20970461,8.38710056 C6.90467972,8.77939176 6.93240926,9.34662282 7.29289322,9.70710678 L7.29289322,9.70710678 L9.585,12 L7.29289322,14.2928932 L7.20970461,14.3871006 C6.90467972,14.7793918 6.93240926,15.3466228 7.29289322,15.7071068 C7.68341751,16.0976311 8.31658249,16.0976311 8.70710678,15.7071068 L8.70710678,15.7071068 L11.7071068,12.7071068 L11.7902954,12.6128994 C12.0953203,12.2206082 12.0675907,11.6533772 11.7071068,11.2928932 L11.7071068,11.2928932 L8.70710678,8.29289322 Z"/>
</svg>

<svg xmlns="http://www.w3.org/2000/svg" viewBox="0 0 24 24">
  <path d="M15.1 4a2 2 0 0 1 1.5.68l5.25 6a2 2 0 0 1 0 2.64l-5.25 6a2 2 0 0 1-1.5.68H4a2 2 0 0 1-2-2V6c0-1.1.9-2 2-2h11.1zM8.6 8.21a1 1 0 0 0-1.32.08l-.08.1a1 1 0 0 0 .08 1.32L9.6 12l-2.3 2.3-.08.09a1 1 0 0 0 1.5 1.32l3-3 .08-.1a1 1 0 0 0-.08-1.32l-3-3z"/>
</svg>
